X:3563
L:1/8
Q:1/8=160
M:6/8
K:Amin
 EAA AGA | BAB GAB | eAA AGA | BAB g3 | egg dee | Bdd GAB | eAA AGA | BAB g3 | egg dee | BEG A3 :| 
 faa aga | bab g3 | aga e3 | gfg d3 | ef/e/d Bc/B/G | AB/A/G E3 | eAA AGA | BAB g3 | egg dee | 
 BEG A3 :|

